X:108
T:John o' Badenyond
S:Museum for the German Flute p5
N:same tune as the Old-Time Wedding Dance from Cape Breton
N:bar 11 is | b>ge>g Tb>af>d| in the book - correction taken from song in Gall & Inglis
M:4/4
L:1/8
Q:1/4=120
K:B Minor
d| B>AFA   B>AFc |d>ed>B A3d | B<Bd>e  f>ed>f|B<Bd>e    f3
a| b>fa>e  f>de>c|d>AB>F d3e | f>de>B  d>Ad>F|E<EF>A    B3:|
a|Tb>af>a Tb>af>b|a>fe>f a3d'| b>af>a Tb>af>d|B/B/B d>e f3
a| b>fa>e  f>de>B|d>Ad>F d3e |Tf>de>B  d>Ad>F|E<E   F>A B3:|

